actions/22/go-previous-use.svg

<svg xmlns="http://www.w3.org/2000/svg" viewBox="0 0 22 22">
  <defs id="defs3051">
<style type="text/css" id="current-color-scheme">.ColorScheme-Text {color:#fcfcfc;}</style>
  </defs>
 <path 
     style="fill:currentColor;fill-opacity:1;stroke:none" 
     d="m 3,6 v 3 1 h 15 1 V 6 C 19,6 19,3 16,3 13,3 9,3 6,3 3,3 3,6 3,6 Z m 1,0 c 0,0 0,-2 2,-2 2,0 8,0 10,0 2,0 2,2 2,2 V 9 H 4 Z m 15,5 -5,4 5,4 z M 3,12 v 3 h 4 v -3 z m 6,0 v 3 h 2 v -3 z"
     class="ColorScheme-Text"
     />
</svg>

<svg xmlns="http://www.w3.org/2000/svg" viewBox="0 0 22 22">
  <defs id="defs3051">
    <style type="text/css" id="current-color-scheme">
      .ColorScheme-Text {
        color:#eff0f1;
      }
      </style>
  </defs>
 <path 
     style="fill:currentColor;fill-opacity:1;stroke:none" 
     d="M 3 3 L 3 9 L 3 10 L 18 10 L 19 10 L 19 4 L 19 3 L 18 3 L 4 3 L 3 3 z M 4 4 L 18 4 L 18 9 L 4 9 L 4 4 z M 19 11 L 14 15 L 19 19 L 19 11 z M 3 12 L 3 15 L 7 15 L 7 12 L 3 12 z M 9 12 L 9 15 L 11 15 L 11 12 L 9 12 z "
     class="ColorScheme-Text"
     />
</svg>
